X:1
T:Factus est Dominus firmamentum - Lassus
T:#
%%score [ 1 2 3 4 ]
L:1/8
Q:1/4=200
M:none
K:C
V:1 treble nm="Soprano" snm="S"
V:2 treble nm="Alto" snm="A"
V:3 treble-8 nm="Tenor" snm="T"
V:4 bass nm="Bass" snm="B"
V:1
"^Factus est Dominus firmamentum""^Orlando de Lassus\n(1530-94)" G16 | (G6 A2 B4) B4 | %2
w: Fa-|ctus * * est|
 (c2 B2 A2 G2 F4) F4 | E4 G8 A4 |[M:4/2] G4 (c6 BA B4) | A8 A4 d4- | d4 G4 B4 (c4- | %7
w: Do\- * * * * mi-|nus fir- ma-|men- tum * * *|me- um, fa\-|* ctus est Do\-|
 c2 BA B2 c2 d4) e4 | e8 z4 A4 | A4 (A6 G2 F4) | E4 (A6 G2 G4- | G2 ^FE F4) G8- | G8 z8 | z16 | %14
w: * * * * * * mi-|nus fir-|ma- men\- * *|tum me\- * *|* * * * um,|||
 z8 z4 d4- | d4 d4 B6 B2 | c4 (d6 c2 B2 A2 | G2 A2 B2 G2 A8) | B8 z8 | z8 z4 G4 | G4 G4 A8 | %21
w: et|* re- fu- gi-|um me\- * * *||um,|et|li- be- ra-|
 (G6 A2 B4) c4- | (c2 d2 e4) (A6 GF | E2 F2 G4) z8 | z4 d4 d4 d4 | e8 (d6 c2) | B8 (A8 | D8) E8 | %28
w: tor * * me\-|* * * us, * *||et li- be-|ra- tor *|* me\-|* us:|
 z8 z4 c4 | (c2 B2 A2 G2 F2 E2 A4) | G6 G2 c4 A4 | z16 | z8 z4 A4 | (A2 G2 F2 E2 D8) | %34
w: spe-|ra\- * * * * * *|bo in e- um,||spe-|ra\- * * * *|
 (d6 cB A4)[Q:1/4=198] A4 | %35
w: bo, * * * spe-|
[Q:1/4=195] (A2[Q:1/4=193] G2[Q:1/4=192] F2[Q:1/4=190] E2[Q:1/4=187] D4)[Q:1/4=184] _B4 | %36
w: ra\- * * * * bo|
[Q:1/4=181] _B4[Q:1/4=177] (G6[Q:1/4=174] ^F[Q:1/4=173]E[Q:1/4=171] F4) |[Q:1/4=170] G16 |] %38
w: in e\- * * *|um.|
V:2
 D12 E4 | D8 G8- | G4 E4 (D6 C2 | B,4) E8 E4 |[M:4/2] E4 G4 (G6 F2 | E8) F8 | D8 G8 | G8 G8- | %8
w: Fa- ctus|est Do\-|* mi- nus *|* fir- ma-|men- tum me\- *|* um,|fa- ctus|est Do\-|
 G4 G4 F8 | E8 A,4 (A,4- | A,2 B,2 C2 D2 E4) E4 | D8 B,8- | B,8 z8 | z16 | z16 | G8 G4 E4- | %16
w: * mi- nus|fir- ma- men\-|* * * * * tum|me- um,||||et re- fu\-|
 E2 E2 F4 (G6 F2 | E2 D2 G6 ^FE F4) | G4 G,4 B,4 B,4 | (C6 D2 E4) D4 | z4 D4 D4 D4 | E8 D4 E4- | %22
w: * gi- um me\- *||um, et li- be-|ra\- * * tor,|et li- be-|ra- tor me\-|
 (E2 F2 G6 F2 F2 ED | G2 F2 E2 D2 E2 F2 G4- | G2 ^FE F4) G8- | G16 | z4 G4 F4 E4 | G8 G8 | %28
w: ||* * * * us,||et li- be-|ra- tor|
 F8 E4 G4 | (G2 F2 E2 D2 C4) C4 | E4 D4 E4 F4 | (F2 E2 D2 C2 _B,2 A,2) D4 | C8 (F4 D4) | %33
w: me- us: spe-|ra- * * * * bo|in e- um, spe-|ra- * * * * * bo|in e\- *|
 A,8 z4 B,4 | (B,2 C2 D2 E2 F8- | F4) C4 z4 D4 | D16 | B,16 |] %38
w: um, spe-|ra\- * * * *|* bo in|e-|um.|
V:3
 (G6 A2 B4) (c4- | c2 BA B2 c2 d4) e4 | (e2 d2 c2 B2 A4) A4 | G4 B4 c4 c4- | %4
w: Fa\- * * ctus|* * * * * * est|Do\- * * * * mi-|nus fir- ma- men\-|
[M:4/2][K:treble-8] (c2 B2 e6 d2 d4- | d4) ^c4 d4 A4 | (B6 c2 d4) e4 | (d6 c2 B2 A2 B4) | %8
w: |* tum me- um,|fa\- * * ctus|est * * * *|
 c4 c4 A4 (d4- | d4 c2 B2 c4) d4 | c4 A4 (c6 B2 | A8) G4 d4- | d4 d4 B6 B2 | c4 (d6 c2 B2 A2 | %14
w: Do- mi- nus fir\-|* * * * ma-|men- tum me\- *|* um, et|* re- fu- gi-|um me\- * * *|
 G2 A2 B2 G2 A8) | B8 z8 | z16 | z8 z4 d4- | d4 d4 d4 (e4- | e2 d2 c8 B2 A2 | B4) B4 (A6 B2 | %21
w: |um,||et|* li- be- ra\-||* tor me\- *|
 c2 B2 c4) G8- | G8 z8 | z4 G4 G4 G4 | A8 G4 (d4- | d2 c2 c6 BA B2 c2) | (d2 e2 d6 c2 c4- | %27
w: * * * us,||et li- be|ra- tor me\-|||
 c4 B2 A2 B2 G2 c4- | c4 B4) c4 e4 | (e2 d2 c2 B2 A4) F4 | c4 B4 A4 c4 | (c2 B2 A2 G2 F4) F4 | %32
w: |* * us: spe-|ra\- * * * * bo|in e- um, spe-|ra\- * * * * bo|
 A4 G4 A4 f4 | (f2 e2 d2 c2 B2 A2 G4) | G8 z4 c4 | (c2 B2 A2 G2 F8) | G4 _B4 A8 | G16 |] %38
w: in e- um, spe-|ra\- * * * * * *|bo, spe-|ra\- * * * *|bo in e-|um.|
V:4
 G,12 C,4 | G,4 (G,6 F,2 E,2 D,2 | C,4) C,4 D,8 | (E,6 D,2 C,4) A,,4 |[M:4/2] E,4 C,4 (G,8 | %5
w: Fa- ctus|est Do\- * * *|* mi- nus|fir\- * * ma-|men- tum me\-|
 A,8) D,8 | G,12 C,4 | G,4 (G,6 F,2 E,2 D,2) | C,4 C,4 D,8 | (A,6 G,2 F,4) D,4 | A,4 F,4 (C,8 | %11
w: * um,|fa- ctus|est Do\- * * *|* mi- nus|fir\- * * ma-|men- tum me\-|
 D,8) G,,8 | G,8 G,4 E,4- | E,2 E,2 F,4 (G,6 F,2 | E,2 D,2 G,6 ^F,E, F,4) | G,8 z8 | z16 | z16 | %18
w: * um,|et re- fu\-|* gi- um me\- *||um,|||
 G,8 G,4 G,4 | A,8 (G,6 F,2 | E,2 F,2 G,4) F,8 | E,8 z4 C,4 | C,4 C,4 D,8 | %23
w: et li- be-|ra- tor *|* * * me-|us, et|li- be- ra-|
 (C,6 B,,2 C,2 D,2 E,4) | (D,6 C,2 B,,8) | C,8 G,8 | G,4 G,4 A,8 | (G,6 F,2 E,8) | D,8 C,8- | %29
w: tor * * * *|me\- * *|us, et|li- be- ra-|tor * *|me- us:|
 C,8 z8 | z8 z4 A,4 | (A,2 G,2 F,2 E,2 D,4) _B,,4 | F,4 E,4 D,8- | D,8 z4 G,,4 | %34
w: |spe-|ra\- * * * * bo|in e- um,|* spe-|
 (G,,2 A,,2 B,,2 C,2 D,2 E,2 F,4) | F,,8 (_B,,6 A,,2 | G,,8) D,8 | G,,16 |] %38
w: ra\- * * * * * *|bo in *|* e-|um.|

